raw/symbols/cro.svg

<svg width="42" height="42" viewBox="0 0 42 42" fill="none" xmlns="http://www.w3.org/2000/svg">
<circle cx="21" cy="21" r="20" fill="#103F68"/>
<path d="M9.62564 14.433L21 7.86603L32.3744 14.433V27.567L21 34.134L9.62564 27.567V14.433Z" stroke="#F3F3F3" stroke-width="1.5"/>
<path d="M25.5 13.3008H16.5L15.5 17.8008H26.5L25.5 13.3008Z" fill="#F3F3F3"/>
<path d="M24 18.9H18L19 21V24.2H23V21L24 18.9Z" fill="#F3F3F3"/>
<path d="M15 19.5L12 22L16.5 29.5H18L20 27.5V26.5L18 25V21.5L15 19.5Z" fill="#F3F3F3"/>
<path d="M27 19.5L30 22L25.5 29.5H24L22 27.5V26.5L24 25V21.5L27 19.5Z" fill="#F3F3F3"/>
</svg>

<svg xmlns="http://www.w3.org/2000/svg" width="42" height="42" fill="none"><circle cx="21" cy="21" r="20" fill="#103F68"/><path stroke="#F3F3F3" stroke-width="1.5" d="M9.626 14.433 21 7.866l11.374 6.567v13.134L21 34.134 9.626 27.567V14.433Z"/><path fill="#F3F3F3" d="M25.5 13.3h-9l-1 4.5h11l-1-4.5ZM24 18.9h-6l1 2.1v3.2h4V21l1-2.1Z"/><path fill="#F3F3F3" d="M15 19.5 12 22l4.5 7.5H18l2-2v-1L18 25v-3.5l-3-2ZM27 19.5l3 2.5-4.5 7.5H24l-2-2v-1l2-1.5v-3.5l3-2Z"/></svg>
